src/pos-icons/heart-half-outline.svg

<svg height="24" viewBox="0 0 24 24" width="24" xmlns="http://www.w3.org/2000/svg"><path d="m4 8.5c0 2.7 2.75 5.37 7 9.24v-10.54c-.58-1.29-2-2.2-3.5-2.2-2 0-3.5 1.5-3.5 3.5m9-1.3v10.54 2.7l-1 .91-1.45-1.32c-5.15-4.67-8.55-7.76-8.55-11.53 0-3.09 2.42-5.5 5.5-5.5 2.5 0 5.5 2 5.5 4.2z"/></svg>

<?xml version="1.0" encoding="UTF-8"?><!DOCTYPE svg PUBLIC "-//W3C//DTD SVG 1.1//EN" "http://www.w3.org/Graphics/SVG/1.1/DTD/svg11.dtd"><svg xmlns="http://www.w3.org/2000/svg" xmlns:xlink="http://www.w3.org/1999/xlink" version="1.1" id="mdi-heart-half-outline" width="24" height="24" viewBox="0 0 24 24"><path d="M4,8.5C4,11.2 6.75,13.87 11,17.74V7.2C10.42,5.91 9,5 7.5,5C5.5,5 4,6.5 4,8.5M13,7.2V17.74L13,20.44L12,21.35L10.55,20.03C5.4,15.36 2,12.27 2,8.5C2,5.41 4.42,3 7.5,3C10,3 13,5 13,7.2Z" /></svg>
